icon-themes/breeze_svg/cmd/sc_changedatabasefield.svg

<svg viewBox="0 0 16 16" xmlns="http://www.w3.org/2000/svg">/&gt;<path d="m8 2a6 2 0 0 0 -6 2v4a6 2 0 0 0 5 1.9707031v2.0292969h-2v-1h-3v3h3v-1h6v1h3v-3h-3v1h-2v-2.0292969a6 2 0 0 0 5-1.9707031v-4a6 2 0 0 0 -6-2zm0 1a5 1 0 0 1 5 1 5 1 0 0 1 -5 1 5 1 0 0 1 -5-1 5 1 0 0 1 5-1zm-5 2.1015625a6 2 0 0 0 5 .8984375 6 2 0 0 0 5-.8964844v1.7949219.1015625 1a5 1 0 0 1 -5 1 5 1 0 0 1 -5-1v-1-.1035156zm0 6.8984375h1v1h-1zm9 0h1v1h-1z" fill="#4d4d4d"/></svg>

<svg xmlns="http://www.w3.org/2000/svg" viewBox="0 0 16 16">
     />
 <path 
     style="fill:#4d4d4d" 
     d="M 8 2 A 6 2 0 0 0 2 4 L 2 8 A 6 2 0 0 0 7 9.9707031 L 7 12 L 5 12 L 5 11 L 2 11 L 2 14 L 5 14 L 5 13 L 11 13 L 11 14 L 14 14 L 14 11 L 11 11 L 11 12 L 9 12 L 9 9.9707031 A 6 2 0 0 0 14 8 L 14 4 A 6 2 0 0 0 8 2 z M 8 3 A 5 1 0 0 1 13 4 A 5 1 0 0 1 8 5 A 5 1 0 0 1 3 4 A 5 1 0 0 1 8 3 z M 3 5.1015625 A 6 2 0 0 0 8 6 A 6 2 0 0 0 13 5.1035156 L 13 6.8984375 L 13 7 L 13 8 A 5 1 0 0 1 8 9 A 5 1 0 0 1 3 8 L 3 7 L 3 6.8964844 L 3 5.1015625 z M 3 12 L 4 12 L 4 13 L 3 13 L 3 12 z M 12 12 L 13 12 L 13 13 L 12 13 L 12 12 z "
     />
 </svg>
